X:504
T:Trana nanna
Z:Jack Campin, http://www.campin.me.uk/
F:Jack Campin's Nine-Note Tunebook
% last edit 03-02-2013
B:Bazsarozsa: 99 Cigany Nepdal, Editio Musica Budapest Z.1813
N:This is Gypsy folk music, not the music of Gypsy professional
N:musicians.  It's usually performed vocally with no instruments
N:other than percussion done by clapping, stamping or whacking
N:large jugs.  So I've included the nonsense words.
M:2/4
L:1/8
Q:1/4=138
K:G
GA BB| cB   AD |GG        AA  |BB Az |
w:Tra-na nan-na dan-na nan-na ta-da la-da ta-da-da
GA BB| cB   AD |cc        dB  |AA G2||
w:Da-na na-na tra-na na-na da-la na-na-ta-da-dom.
A2 A2|(AG) .F.D|G/F/G/A/ .B.^c|d2 dz |
w:Na-na da-*na-na da-ra-na-na na-na dai-nom
A2 A2|(AG) .F.D|GA       .=F.G|E2 E2|]
w:Hoi doi na* nan-na ta-da lad-da dai-dom.

